X:11602
T:Saddle The Pony
R:Jig
B:Tuneworks Tunebook (https://www.tuneworks.co.uk/)
G:Tuneworks
Z:Jon Warbrick <jon.warbrick@googlemail.com>
M:6/8
L:1/8
K:G
|: D | "G"GBA G2 B | def gdB | "G"GBA G2 B | "D"AFD AFD | 
"G"GBA G2 B | def gfg | "C"age "D"dBA | "G"BGG G2 :|
d | "Em"efe edB | def gfg | "D"efe edB | dBA ABd | 
"C"efe edB | def gfg | "D"age dBA | BGG "G"G2 :|